packages/swarm-icons/src/icons/line/Text Block.svg

<svg xmlns="http://www.w3.org/2000/svg" width="24" height="24" viewBox="0 0 24 24">
  <path fill="#757575" d="M6,7.5 C5.72385763,7.5 5.5,7.27614237 5.5,7 C5.5,6.72385763 5.72385763,6.5 6,6.5 L18,6.5 C18.2761424,6.5 18.5,6.72385763 18.5,7 C18.5,7.27614237 18.2761424,7.5 18,7.5 L6,7.5 Z M6,12.5 C5.72385763,12.5 5.5,12.2761424 5.5,12 C5.5,11.7238576 5.72385763,11.5 6,11.5 L18,11.5 C18.2761424,11.5 18.5,11.7238576 18.5,12 C18.5,12.2761424 18.2761424,12.5 18,12.5 L6,12.5 Z M6,17.5 C5.72385763,17.5 5.5,17.2761424 5.5,17 C5.5,16.7238576 5.72385763,16.5 6,16.5 L15,16.5 C15.2761424,16.5 15.5,16.7238576 15.5,17 C15.5,17.2761424 15.2761424,17.5 15,17.5 L6,17.5 Z M5,2 L19,2 C20.6568542,2 22,3.34314575 22,5 L22,19 C22,20.6568542 20.6568542,22 19,22 L5,22 C3.34314575,22 2,20.6568542 2,19 L2,5 C2,3.34314575 3.34314575,2 5,2 Z M5,3 C3.8954305,3 3,3.8954305 3,5 L3,19 C3,20.1045695 3.8954305,21 5,21 L19,21 C20.1045695,21 21,20.1045695 21,19 L21,5 C21,3.8954305 20.1045695,3 19,3 L5,3 Z"/>
</svg>

<svg xmlns="http://www.w3.org/2000/svg" width="24" height="24"><path fill="#757575" d="M6 7.5a.5.5 0 010-1h12a.5.5 0 110 1H6zm0 5a.5.5 0 110-1h12a.5.5 0 110 1H6zm0 5a.5.5 0 110-1h9a.5.5 0 110 1H6zM5 2h14a3 3 0 013 3v14a3 3 0 01-3 3H5a3 3 0 01-3-3V5a3 3 0 013-3zm0 1a2 2 0 00-2 2v14a2 2 0 002 2h14a2 2 0 002-2V5a2 2 0 00-2-2H5z"/></svg>
